src/assets/selectIcons/varie_2.svg

<svg xmlns="http://www.w3.org/2000/svg" viewBox="0 0 512 512"><path d="M0 0h512v512H0z"/><path fill="#fff" d="M254.563 20.75c-42.96 0-85.918 16.387-118.688 49.156-65.54 65.54-65.852 172.15-.313 237.688 65.54 65.54 172.15 65.226 237.688-.313 65.54-65.538 65.54-171.835 0-237.374-32.77-32.77-75.728-49.156-118.688-49.156zm-.157 18.47c25.68.053 51.363 6.724 74.313 19.968-13.573-3.984-26.266-2.455-34.22 5.5-14.437 14.437-7.796 44.485 14.813 67.093 22.608 22.61 52.625 29.22 67.062 14.782 8.523-8.522 9.706-22.468 4.594-37.125 36.352 57.684 29.586 134.6-20.69 184.875-29.158 29.16-67.353 43.773-105.56 43.813 9.436-2.3 17.762-6.732 24.436-13.406 28.885-28.886 15.64-88.954-29.594-134.19-45.234-45.233-105.302-58.51-134.187-29.624-4.052 4.052-7.266 8.723-9.688 13.875 3.092-33.537 17.473-66.222 43.157-91.905 29.198-29.2 67.384-43.737 105.562-43.656zM386.97 319.28c-.205.206-.39.422-.595.626-72.78 72.78-191.252 73.155-264.03.375-.278-.275-.54-.565-.814-.842-11.987 9.483-18.81 20.384-18.81 32 0 36.523 67.315 66.125 151.343 66.125 84.027 0 152.093-29.6 152.093-66.125 0-11.68-6.97-22.637-19.187-32.157zm39.717 54.564c-22.225 32.29-91.192 55.906-172.625 55.906-81.172 0-149.954-23.46-172.406-55.594-12.638 11.3-19.72 24.052-19.72 37.563.002 46.928 85.546 85.03 192.064 85.03 106.518 0 192.97-38.1 192.97-85.03 0-13.637-7.313-26.498-20.283-37.876z"/></svg>

<?xml version="1.0" encoding="UTF-8" standalone="no"?>
<!DOCTYPE svg PUBLIC "-//W3C//DTD SVG 1.1//EN" "http://www.w3.org/Graphics/SVG/1.1/DTD/svg11.dtd">
<svg width="100%" height="100%" viewBox="0 0 512 512" version="1.1" xmlns="http://www.w3.org/2000/svg" xmlns:xlink="http://www.w3.org/1999/xlink" xml:space="preserve" xmlns:serif="http://www.serif.com/" style="fill-rule:evenodd;clip-rule:evenodd;stroke-linejoin:round;stroke-miterlimit:2;">
    <rect x="0" y="0" width="512" height="512" style="fill-rule:nonzero;"/>
    <path d="M254.563,20.75C211.603,20.75 168.645,37.137 135.875,69.906C70.335,135.446 70.023,242.056 135.562,307.594C201.102,373.134 307.712,372.82 373.25,307.281C438.79,241.743 438.79,135.446 373.25,69.907C340.48,37.137 297.522,20.751 254.562,20.751L254.563,20.75ZM254.406,39.22C280.086,39.273 305.769,45.944 328.719,59.188C315.146,55.204 302.453,56.733 294.499,64.688C280.062,79.125 286.703,109.173 309.312,131.781C331.92,154.391 361.937,161.001 376.374,146.563C384.897,138.041 386.08,124.095 380.968,109.438C417.32,167.122 410.554,244.038 360.278,294.313C331.12,323.473 292.925,338.086 254.718,338.126C264.154,335.826 272.48,331.394 279.154,324.72C308.039,295.834 294.794,235.766 249.56,190.53C204.326,145.297 144.258,132.02 115.373,160.906C111.321,164.958 108.107,169.629 105.685,174.781C108.777,141.244 123.158,108.559 148.842,82.876C178.04,53.676 216.226,39.139 254.404,39.22L254.406,39.22Z" style="fill:rgb(130,194,202);fill-rule:nonzero;"/>
    <path d="M386.97,319.28L386.97,319.282C399.187,328.802 406.157,339.759 406.157,351.439C406.157,387.964 338.091,417.564 254.064,417.564C170.036,417.564 102.721,387.962 102.721,351.439C102.721,339.823 109.544,328.922 121.531,319.439C121.805,319.716 122.067,320.006 122.345,320.281C195.123,393.061 313.595,392.686 386.375,319.906C386.58,319.702 386.765,319.486 386.97,319.28ZM426.687,373.844C439.657,385.222 446.97,398.082 446.97,411.719C446.97,458.649 360.518,496.749 254,496.749C147.482,496.749 61.938,458.647 61.936,411.719C61.936,398.208 69.018,385.456 81.656,374.156C104.108,406.29 172.89,429.75 254.062,429.75C335.495,429.75 404.462,406.134 426.687,373.844Z" style="fill:rgb(235,172,38);"/>
</svg>
